X:538
T:Mill of Lagan, The
R:Reel
C:William Marshal
B:The Athole Collection
M:C|
L:1/8
K:F
F|FAcf ~f2 e>f|gaba gGGA|FAcf ~f2 ef|afge fFF:|
B|A/B/c c>A B/c/d d>B|d/e/f f>d eccb|afge f2 dB|A/B/c GB AFFB|
A/B/c c>A B/c/d d>B|d/e/f f>d eccb|afca gece|fdcB A<FF||

